SVG/UpDown.svg

<svg height="46" viewBox="0 0 34 46" width="34" xmlns="http://www.w3.org/2000/svg" xmlns:xlink="http://www.w3.org/1999/xlink"><filter id="a" height="160%" width="167.5%" x="-33.8%" y="-30%"><feOffset dx="0" dy="1" in="SourceAlpha" result="shadowOffsetOuter1"/><feGaussianBlur in="shadowOffsetOuter1" result="shadowBlurOuter1" stdDeviation=".9"/><feColorMatrix in="shadowBlurOuter1" result="shadowMatrixOuter1" type="matrix" values="0 0 0 0 0   0 0 0 0 0   0 0 0 0 0  0 0 0 0.65 0"/><feMerge><feMergeNode in="shadowMatrixOuter1"/><feMergeNode in="SourceGraphic"/></feMerge></filter><g fill="none" filter="url(#a)" transform="translate(5 4)"><path d="m7.99 0-5.46 5.96h3.47v1.04h-6v.02 3.94.02h6v1.06h-3.46l5.47 5.96 5.46-5.96h-3.48v-1.06h6.01v-3.98h-6.01v-1.04h3.47z" fill="#fff"/><path d="m14.96 8.02h-5.98v-3.04h2.26l-3.25-3.32-3.22 3.32h2.25v3.04h-5.98-.02v1.96h.02 6v3.04h-2.28l3.25 3.32 3.22-3.32h-2.25v-3.04h5.98.02v-1.96z" fill="#000"/></g></svg>

<svg width="24" height="24" viewBox="0 0 24 24" xmlns="http://www.w3.org/2000/svg"><defs><filter x="-20%" y="-12.2%" width="140%" height="135.6%" filterUnits="objectBoundingBox" id="a"><feOffset dy="1" in="SourceAlpha" result="shadowOffsetOuter1"/><feGaussianBlur stdDeviation=".9" in="shadowOffsetOuter1" result="shadowBlurOuter1"/><feColorMatrix values="0 0 0 0 0 0 0 0 0 0 0 0 0 0 0 0 0 0 0.65 0" in="shadowBlurOuter1" result="shadowMatrixOuter1"/><feMerge><feMergeNode in="shadowMatrixOuter1"/><feMergeNode in="SourceGraphic"/></feMerge></filter></defs><g filter="url(#a)" transform="translate(4 3)" fill="none"><path fill="#FFF" d="M7.99 0L2.53 5.96H6V7H0v3.98h6v1.06H2.54L8.01 18l5.46-5.96H9.99v-1.06H16V7H9.99V5.96h3.47z"/><path fill="#000" d="M14.96 8.02H8.98V4.98h2.26L7.99 1.66 4.77 4.98h2.25v3.04h-6v1.96h6.02v3.04H4.76l3.25 3.32 3.22-3.32H8.98V9.98h6V8.02z"/></g></svg>
